X:1
T:In lectulo per noctes
T:Giovanni Paolo Caprioli
T:Source : Ghirlanda Sacra---Venetia---Ang.Gardano (B.Magni)---1625. Editor : André Vierendeels (21/12/16).
T:Nptes : Original clefs : C1, F4 Original note values have been halved in 3-beat measures Dotted brackets indicate black notes Figures in BC are notated in original print Music collected by Leonardo Simonetti
T:In lectulo per noctes
T:©
T:©
T:©
T:©
T:©
T:©
C:Giovanni Paolo Caprioli
Z:©
%%score 1 2
L:1/8
Q:1/4=121
M:4/4
K:C
V:1 treble nm="Soprano" snm="S"
V:2 bass nm="MusicXML Part"
V:1
 z2 B2 d4- | dGGG G4 | A4 z AAB | c2 G4 AG | F2 FE E4 | D4 d4- | d2 c2 B3 A | A8 | G8 | %9
w: In le-|* ctu- lo per no-|ctes qiem di- li-|git a- ni- ma|me- a, que- si-|vi nec|_ in- ve- ni|il-|lam|
 z4 B3 c/d/ | BBBB BBBA | c2 cc AGFE | G4 G4 | z2 B2 G2 A2 | BA B^c d4- | d4 e4- | e2 dc B4 | A8 | %18
w: sur- * *|ga et cir- cu- o- bo ci- vi-|ta- te per vi- co et pla-|te- as|quae à quem|di- * li- * git|_ a-|* ni- ma me-|a,|
 z2 dc B2 A2 | B6 B2 | c6 c2 | c3 d d4 | c8 | e3 e e2 e2 | e2 d2 c3 B | B4 B4 | %26
w: in- ve- ne- runt|me cu-|sto- des|ci- vi- ta-|tis,|pau- lu- lum eum|per- trans is- sem|e- os,|
 z2 G2 AB/c/ B/B/B/A/- | B6 B2 | c6 c2 | d8 | e8 | e2 dc B4 | A8 | z2 dc B4 | z2 ed c2 A2 | %35
w: in ve- * * * * * ni|_ quem|di- li-|git|a-|* ni- ma me-|a,|te- nu- i|nec di- mit- tam,|
 z2 dc B3 A | A8 | G8 | z2 GG G3 G | G2 G3 GGF | A3 A A2 cB | A2 G2 F2 FE | E8 | E8 | %44
w: nec di- mit- tam|il-|lum,|e- gre- di- mi-|ni Fi- li- ae Hie-|ru- sa- lem et con-|gra- tu- la- mi- ni|mi-|hi,|
[M:6/4] E4 F2 E2 F2 G2 | A8 A4 | F6 F2 E2 D2 | E6 D2 E2 ^F2 | G8 ^F4 | G8 z4 | B4 c2 B2 c2 d2 | %51
w: Can- ta- * te _|me- cum|can- ti- cum lae-|ti- ti- ae cum|ci- tha-|ra,|can- ta- * te _|
 e6 e2 e4 | c6 c2 B2 A2 | B6 A2 B2 ^c2 | d8 ^c4 |[M:4/4] d8 | z4 G4- | G2 FE E2 Ec | _B3 B A2 d2 | %59
w: can- ti- cum|iu- bi- la- ti-|o- nis in Psal-|te- ri-|o,|qui|_ a in- ve- ni quem|di- li- git, quem|
 c3 c B2 e2- | e2 cB B4 | A8 | z4 d4- | d6 _BA | A8 | G8 |] %66
w: di- li- git a-|* ni- ma me-|a,|a|_ ni- ma|me-|a.|
V:2
"^BC" G,8 | E,8 | D,D,D,E, F,4 | C,8 | D,4 A,,4 | D,6 C,2 | B,,2 A,,2 G,,4 | D,8 | G,,8- | G,,8- | %10
 G,,8 | C,4 F,,4 | C,8 | G,6 ^F,2 | G,2 E,2 D,4 | B,,4 C,2 A,,2 | E,8 | A,,8 | G,,3 A,, B,,2 D,2 | %19
 G,,2 G,F, E,3 D, | C,2 CB, A,3 G, | F,2 A,2 G,2 G,,2 | C,8- | C,8 | C,2 D,2 E,2 F,2 | G,8 | %26
 E,4 ^F,4 | G,4 G,,4 | A,,8 | G,,8 | C,2 B,,2 A,,2 G,,F,, | E,,8 | A,,2 A,G, ^F,2 D,^C, | %33
 B,,3 A,, G,,2 G,F, | E,2 C,2 F,4 | D,4 E,2 B,,2 | ^C,4 D,4 | G,,8 | C,8- | C,8 | F,,8- | %41
 F,,2 C,2 D,4 | E,8 | A,,8 |[M:6/4] A,,4 D,4 C,4 | F,,12 | D,12 | C,6 B,,2 A,,4 | G,,4 D,8 | %49
 G,,12 | G,4 F,4 D,4 | C,12 | C,12 | G,6 F,2 E,4 | D,4 A,8 |[M:4/4] D,8 | C,8 | B,,4 C,4 | %58
 G,,4 D,4 | A,,4 G,,4 | A,,4 E,4 | A,,8 | _B,,6 A,,G,, | ^F,,4 G,,4 | D,8 | G,,8 |] %66

